;FLAVOR:Marlin
;TIME:31150
;Filament used: 20.8836m
;Layer height: 0.2
;MINX:54
;MINY:9
;MINZ:0.2
;MAXX:166
;MAXY:211
;MAXZ:35
;Generated with Creality Slicer 4.8.2-218
M140 S50
M105
M190 S50
M104 S200
M105
M109 S200
M82 ;absolute extrusion mode

G28 ;Home

G92 E0 ;Reset Extruder
G1 Z2.0 F3000 ;Move Z Axis up
G1 X10.1 Y20 Z0.28 F5000.0 ;Move to start position
G1 X10.1 Y200.0 Z0.28 F1500.0 E15 ;Draw the first line
G1 X10.4 Y200.0 Z0.28 F5000.0 ;Move to side a little
G1 X10.4 Y20 Z0.28 F1500.0 E30 ;Draw the second line
G92 E0 ;Reset Extruder
G1 Z2.0 F3000 ;Move Z Axis up

G92 E0
G92 E0
G1 F2700 E-5
;LAYER_COUNT:175
;LAYER:0
M107
G0 F6000 X80.714 Y17.668 Z0.2
;TYPE:SKIRT
G1 F2700 E0
G1 F1200 X80.961 Y16.763 E0.0312
G1 X81.284 Y15.882 E0.06241
G1 X81.681 Y15.032 E0.09361
G1 X82.149 Y14.22 E0.12479
G1 X82.684 Y13.45 E0.15597
G1 X83.283 Y12.728 E0.18717
G1 X83.941 Y12.06 E0.21836
G1 X84.654 Y11.45 E0.24957
G1 X85.416 Y10.904 E0.28075
G1 X86.222 Y10.424 E0.31195
G1 X87.066 Y10.015 E0.34314
G1 X87.942 Y9.679 E0.37435
G1 X88.843 Y9.419 E0.40554
G1 X89.763 Y9.237 E0.43673
G1 X90.339 Y9.163 E0.45605
G1 X90.518 Y9.145 E0.46203
G1 X90.798 Y9.121 E0.47138
G1 X91.234 Y9.089 E0.48592
G1 X91.756 Y9.056 E0.50331
G1 X92.217 Y9.033 E0.51867
G1 X92.576 Y9.021 E0.53061
G1 X93.869 Y9 E0.57362
G1 X125.16 Y9 E1.61437
G1 X126.022 Y9.011 E1.64304
G1 X126.338 Y9.02 E1.65355
G1 X126.807 Y9.043 E1.66917
G1 X127.024 Y9.057 E1.6764
G1 X127.284 Y9.077 E1.68508
G1 X128.133 Y9.152 E1.71342
G1 X129.063 Y9.274 E1.74462
G1 X129.979 Y9.475 E1.77581
G1 X130.875 Y9.753 E1.80702
G1 X131.743 Y10.107 E1.83819
G1 X132.579 Y10.533 E1.8694
G1 X133.375 Y11.029 E1.9006
G1 X134.125 Y11.591 E1.93177
G1 X134.826 Y12.215 E1.96298
G1 X135.47 Y12.896 E1.99416
G1 X136.054 Y13.63 E2.02535
G1 X136.574 Y14.411 E2.05656
G1 X137.025 Y15.233 E2.08774
G1 X137.405 Y16.091 E2.11896
G1 X137.71 Y16.978 E2.15015
G1 X137.938 Y17.887 E2.18132
G1 X138.088 Y18.813 E2.21252
G1 X138.141 Y19.379 E2.23143
G1 X138.201 Y20.277 E2.26136
G1 X138.413 Y22.917 E2.34945
G1 X138.679 Y25.361 E2.43122
G1 X139.029 Y27.906 E2.51667
G1 X139.438 Y30.361 E2.59944
G1 X139.919 Y32.82 E2.68278
G1 X140.473 Y35.277 E2.76655
G1 X141.094 Y37.709 E2.85004
G1 X141.79 Y40.149 E2.93443
G1 X142.556 Y42.57 E3.01889
G1 X143.378 Y44.93 E3.102
G1 X144.264 Y47.264 E3.18504
G1 X145.23 Y49.606 E3.2693
G1 X146.246 Y51.885 E3.35229
G1 X147.346 Y54.173 E3.43673
G1 X148.498 Y56.405 E3.52027
G1 X149.723 Y58.626 E3.60463
G1 X150.991 Y60.776 E3.68765
G1 X152.338 Y62.92 E3.77187
G1 X153.735 Y65.01 E3.85548
G1 X155.191 Y67.059 E3.93908
G1 X156.706 Y69.07 E4.02283
G1 X158.268 Y71.024 E4.10603
G1 X159.896 Y72.948 E4.18986
G1 X161.615 Y74.866 E4.27552
G1 X162.946 Y76.279 E4.34008
G1 X163.564 Y76.985 E4.37129
G1 X164.12 Y77.74 E4.40248
G1 X164.609 Y78.54 E4.43366
G1 X165.029 Y79.379 E4.46487
G1 X165.375 Y80.25 E4.49604
G1 X165.646 Y81.148 E4.52724
G1 X165.84 Y82.066 E4.55845
G1 X165.955 Y82.997 E4.58965
G1 X165.985 Y83.538 E4.60767
G1 X165.995 Y83.863 E4.61848
G1 X166 Y84.201 E4.62973
G1 X165.999 Y197.1 E8.38476
G1 X165.988 Y197.846 E8.40958
G1 X165.934 Y198.783 E8.44079
G1 X165.865 Y199.332 E8.4592
G1 X165.825 Y199.596 E8.46808
G1 X165.771 Y199.919 E8.47897
G1 X165.718 Y200.21 E8.48881
G1 X165.511 Y201.125 E8.52001
G1 X165.226 Y202.018 E8.55119
G1 X164.702 Y203.224 E8.59492
G1 X164.429 Y203.761 E8.61496
G1 X164.034 Y204.472 E8.64201
G1 X164.011 Y204.51 E8.64349
G1 X163.491 Y205.291 E8.67469
G1 X162.907 Y206.025 E8.70589
G1 X162.556 Y206.41 E8.72322
G1 X162.239 Y206.742 E8.73849
G1 X161.991 Y206.994 E8.75025
G1 X161.822 Y207.16 E8.75813
G1 X161.126 Y207.788 E8.78931
G1 X160.075 Y208.557 E8.83262
G1 X159.744 Y208.765 E8.84562
G1 X159.352 Y209 E8.86082
G1 X158.991 Y209.208 E8.87468
G1 X158.159 Y209.641 E8.90588
G1 X157.026 Y210.096 E8.94648
G1 X156.639 Y210.227 E8.96007
G1 X156.319 Y210.33 E8.97126
G1 X156.027 Y210.419 E8.98141
G1 X155.119 Y210.654 E9.0126
G1 X154.145 Y210.817 E9.04545
G1 X153.527 Y210.892 E9.06615
G1 X153.15 Y210.931 E9.07876
G1 X152.942 Y210.949 E9.0857
G1 X152.344 Y210.984 E9.10563
G1 X152.03 Y210.994 E9.11608
G1 X151.68 Y211 E9.12772
G1 X68.547 Y210.999 E11.89273
G1 X67.85 Y210.989 E11.91592
G1 X67.221 Y210.962 E11.93686
G1 X66.956 Y210.943 E11.9457
G1 X66.477 Y210.898 E11.9617
G1 X66.011 Y210.844 E11.9773
G1 X65.085 Y210.696 E12.00849
G1 X64.126 Y210.456 E12.04137
G1 X63.504 Y210.27 E12.06296
G1 X63.036 Y210.119 E12.07932
G1 X62.881 Y210.065 E12.08478
G1 X62.009 Y209.719 E12.11598
G1 X61.009 Y209.209 E12.15332
G1 X60.7 Y209.031 E12.16518
G1 X60.416 Y208.861 E12.17619
G1 X60.108 Y208.671 E12.18822
G1 X59.331 Y208.145 E12.21943
G1 X58.602 Y207.555 E12.25062
G1 X58.251 Y207.23 E12.26653
G1 X58.059 Y207.045 E12.2754
G1 X57.77 Y206.756 E12.289
G1 X57.506 Y206.482 E12.30165
G1 X56.884 Y205.78 E12.33285
G1 X56.325 Y205.027 E12.36404
G1 X55.821 Y204.209 E12.39599
G1 X55.575 Y203.768 E12.41279
G1 X55.37 Y203.384 E12.42727
G1 X54.973 Y202.534 E12.45847
G1 X54.65 Y201.654 E12.48965
G1 X54.324 Y200.37 E12.53371
G1 X54.213 Y199.788 E12.55342
G1 X54.087 Y198.957 E12.58137
G1 X54.078 Y198.877 E12.58405
G1 X54.01 Y197.792 E12.62021
G1 X54 Y196.962 E12.64781
G1 X54.001 Y84.422 E16.39091
G1 X54.011 Y83.719 E16.41429
G1 X54.064 Y82.782 E16.44551
G1 X54.197 Y81.854 E16.47669
G1 X54.409 Y80.94 E16.5079
G1 X54.697 Y80.048 E16.53907
G1 X55.061 Y79.183 E16.57029
G1 X55.497 Y78.353 E16.60147
G1 X56.002 Y77.562 E16.63268
G1 X56.746 Y76.615 E16.67274
G1 X57.136 Y76.172 E16.69237
G1 X58.405 Y74.767 E16.75534
G1 X60.052 Y72.837 E16.83973
G1 X61.598 Y70.917 E16.92171
G1 X63.131 Y68.899 E17.006
G1 X64.611 Y66.833 E17.09053
G1 X65.999 Y64.774 E17.17312
G1 X67.354 Y62.636 E17.25731
G1 X68.647 Y60.463 E17.34141
G1 X69.85 Y58.302 E17.42367
G1 X71.032 Y56.034 E17.50874
G1 X72.132 Y53.766 E17.59257
G1 X73.148 Y51.511 E17.67484
G1 X74.138 Y49.137 E17.76039
G1 X75.04 Y46.795 E17.84386
G1 X75.864 Y44.451 E17.9265
G1 X76.645 Y42.012 E18.01168
G1 X77.337 Y39.629 E18.09421
G1 X77.966 Y37.201 E18.17763
G1 X78.535 Y34.722 E18.26223
G1 X79.036 Y32.219 E18.34713
G1 X79.444 Y29.815 E18.42823
G1 X79.801 Y27.29 E18.51305
G1 X80.085 Y24.778 E18.59713
G1 X80.3 Y22.235 E18.68201
G1 X80.392 Y20.73 E18.73216
G1 X80.456 Y19.524 E18.77233
G1 X80.545 Y18.59 E18.80354
G1 X80.714 Y17.668 E18.83471
G0 F6000 X81.112 Y17.723
G1 F1200 X81.358 Y16.836 E18.86533
G1 X81.68 Y15.974 E18.89593
G1 X82.075 Y15.142 E18.92657
G1 X82.541 Y14.348 E18.95719
G1 X83.075 Y13.598 E18.98781
G1 X83.671 Y12.897 E19.01841
G1 X84.326 Y12.25 E19.04903
G1 X85.035 Y11.662 E19.07967
G1 X85.792 Y11.138 E19.11029
G1 X86.592 Y10.682 E19.14092
G1 X87.428 Y10.297 E19.17153
G1 X88.294 Y9.986 E19.20213
G1 X89.184 Y9.751 E19.23275
G1 X90.379 Y9.561 E19.273
G1 X90.558 Y9.543 E19.27898
G1 X90.828 Y9.52 E19.28799
G1 X91.26 Y9.488 E19.3024
G1 X91.776 Y9.455 E19.3196
G1 X92.237 Y9.432 E19.33495
G1 X92.583 Y9.421 E19.34646
G1 X93.869 Y9.4 E19.38924
G1 X125.16 Y9.4 E20.42998
G1 X126.016 Y9.411 E20.45846
G1 X126.321 Y9.42 E20.46861
G1 X126.781 Y9.442 E20.48392
G1 X127.249 Y9.475 E20.49953
G1 X128.098 Y9.55 E20.52788
G1 X129.01 Y9.671 E20.55847
G1 X129.909 Y9.87 E20.5891
G1 X130.787 Y10.147 E20.61972
G1 X131.638 Y10.499 E20.65035
G1 X132.455 Y10.923 E20.68097
G1 X133.232 Y11.417 E20.71159
G1 X133.963 Y11.976 E20.7422
G1 X134.644 Y12.597 E20.77285
G1 X135.267 Y13.274 E20.80345
G1 X135.83 Y14.003 E20.83409
G1 X136.327 Y14.778 E20.86471
G1 X136.755 Y15.593 E20.89533
G1 X137.111 Y16.442 E20.92595
G1 X137.391 Y17.319 E20.95656
G1 X137.595 Y18.217 E20.98719
G1 X137.742 Y19.405 E21.02701
G1 X137.804 Y20.337 E21.05807
G1 X138.012 Y22.92 E21.14426
G1 X138.288 Y25.457 E21.22914
G1 X138.627 Y27.92 E21.31183
G1 X139.045 Y30.432 E21.39653
G1 X139.532 Y32.92 E21.48085
G1 X140.089 Y35.392 E21.56513
G1 X140.708 Y37.812 E21.64822
G1 X141.409 Y40.275 E21.73339
G1 X142.172 Y42.685 E21.81747
G1 X142.997 Y45.056 E21.90096
G1 X143.88 Y47.38 E21.98365
G1 X144.872 Y49.785 E22.07018
G1 X145.892 Y52.071 E22.15344
G1 X146.98 Y54.337 E22.23704
G1 X148.142 Y56.588 E22.3213
G1 X149.386 Y58.842 E22.40693
G1 X150.649 Y60.985 E22.48966
G1 X151.999 Y63.134 E22.57407
G1 X153.403 Y65.234 E22.65809
G1 X154.861 Y67.286 E22.74181
G1 X156.39 Y69.315 E22.82631
G1 X157.967 Y71.288 E22.91032
G1 X159.594 Y73.211 E22.9941
G1 X161.308 Y75.123 E23.07951
G1 X162.656 Y76.556 E23.14494
G1 X163.263 Y77.248 E23.17556
G1 X163.806 Y77.991 E23.20617
G1 X164.284 Y78.778 E23.23679
G1 X164.691 Y79.604 E23.26742
G1 X165.025 Y80.462 E23.29804
G1 X165.284 Y81.346 E23.32868
G1 X165.464 Y82.248 E23.35927
G1 X165.585 Y83.55 E23.40276
G1 X165.595 Y83.875 E23.41358
G1 X165.6 Y84.201 E23.42442
G1 X165.599 Y197.094 E27.17926
G1 X165.588 Y197.84 E27.20407
G1 X165.534 Y198.759 E27.23469
G1 X165.469 Y199.272 E27.25189
G1 X165.429 Y199.536 E27.26077
G1 X165.377 Y199.847 E27.27126
G1 X165.324 Y200.138 E27.2811
G1 X165.12 Y201.036 E27.31173
G1 X164.839 Y201.913 E27.34236
G1 X164.345 Y203.043 E27.38337
G1 X164.072 Y203.58 E27.40341
G1 X163.691 Y204.265 E27.42948
G1 X163.668 Y204.303 E27.43096
G1 X163.158 Y205.069 E27.46157
G1 X162.583 Y205.788 E27.49219
G1 X162.267 Y206.134 E27.50777
G1 X161.95 Y206.466 E27.52304
G1 X161.711 Y206.708 E27.53435
G1 X161.542 Y206.874 E27.54223
G1 X160.858 Y207.49 E27.57285
G1 X159.858 Y208.221 E27.61405
G1 X159.537 Y208.423 E27.62666
G1 X159.152 Y208.654 E27.64159
G1 X158.791 Y208.862 E27.65545
G1 X157.974 Y209.286 E27.68607
G1 X156.898 Y209.717 E27.72462
G1 X156.511 Y209.848 E27.73821
G1 X156.202 Y209.947 E27.749
G1 X155.91 Y210.036 E27.75915
G1 X155.019 Y210.266 E27.78976
G1 X154.097 Y210.42 E27.82085
G1 X153.479 Y210.495 E27.84155
G1 X153.116 Y210.533 E27.85369
G1 X152.908 Y210.551 E27.86064
G1 X152.331 Y210.585 E27.87986
G1 X152.017 Y210.595 E27.89031
G1 X151.68 Y210.6 E27.90152
G1 X68.553 Y210.599 E30.66634
G1 X67.856 Y210.589 E30.68952
G1 X67.25 Y210.563 E30.7097
G1 X66.985 Y210.544 E30.71853
G1 X66.523 Y210.501 E30.73396
G1 X66.057 Y210.447 E30.74957
G1 X65.148 Y210.301 E30.78019
G1 X64.24 Y210.073 E30.81133
G1 X63.618 Y209.887 E30.83292
G1 X63.168 Y209.741 E30.84865
G1 X63.013 Y209.687 E30.85411
G1 X62.157 Y209.347 E30.88475
G1 X61.209 Y208.862 E30.92017
G1 X60.9 Y208.684 E30.93203
G1 X60.626 Y208.521 E30.94263
G1 X60.318 Y208.331 E30.95467
G1 X59.556 Y207.814 E30.98529
G1 X58.528 Y206.942 E31.03013
G1 X58.336 Y206.757 E31.039
G1 X58.058 Y206.479 E31.05207
G1 X57.794 Y206.205 E31.06473
G1 X57.184 Y205.515 E31.09536
G1 X56.637 Y204.774 E31.12599
G1 X56.17 Y204.014 E31.15566
G1 X55.924 Y203.573 E31.17246
G1 X55.725 Y203.199 E31.18655
G1 X55.336 Y202.365 E31.21716
G1 X55.021 Y201.5 E31.24777
G1 X54.717 Y200.295 E31.28911
G1 X54.606 Y199.713 E31.30881
G1 X54.484 Y198.912 E31.33576
G1 X54.475 Y198.832 E31.33844
G1 X54.41 Y197.786 E31.3733
G1 X54.4 Y196.962 E31.40071
G1 X54.401 Y84.427 E35.14364
G1 X54.411 Y83.724 E35.16702
G1 X54.464 Y82.805 E35.19764
G1 X54.597 Y81.894 E35.22826
G1 X54.808 Y80.998 E35.25887
G1 X55.096 Y80.124 E35.28948
G1 X55.459 Y79.277 E35.32013
G1 X55.894 Y78.466 E35.35074
G1 X56.398 Y77.695 E35.38138
G1 X57.046 Y76.879 E35.41603
G1 X57.433 Y76.44 E35.4355
G1 X58.709 Y75.028 E35.4988
G1 X60.35 Y73.105 E35.58288
G1 X61.912 Y71.164 E35.66574
G1 X63.457 Y69.131 E35.75067
G1 X64.924 Y67.084 E35.83443
G1 X66.352 Y64.965 E35.91942
G1 X67.693 Y62.849 E36.00274
G1 X68.982 Y60.682 E36.08661
G1 X70.219 Y58.46 E36.17119
G1 X71.389 Y56.215 E36.25539
G1 X72.478 Y53.969 E36.33841
G1 X73.537 Y51.621 E36.42408
G1 X74.497 Y49.317 E36.5071
G1 X75.415 Y46.935 E36.592
G1 X76.246 Y44.569 E36.67541
G1 X77.024 Y42.141 E36.76021
G1 X77.722 Y39.735 E36.84353
G1 X78.359 Y37.278 E36.92796
G1 X78.921 Y34.826 E37.01163
G1 X79.429 Y32.293 E37.09755
G1 X79.841 Y29.867 E37.17939
G1 X80.201 Y27.319 E37.26498
G1 X80.483 Y24.82 E37.34863
G1 X80.697 Y22.293 E37.43298
G1 X80.791 Y20.755 E37.48423
G1 X80.855 Y19.545 E37.52453
G1 X80.944 Y18.629 E37.55514
G1 X81.112 Y17.723 E37.58578
G0 F6000 X81.509 Y17.78
G1 F1200 X81.754 Y16.911 E37.61581
G1 X82.075 Y16.066 E37.64588
G1 X82.469 Y15.254 E37.6759
G1 X82.934 Y14.479 E37.70596
G1 X83.465 Y13.749 E37.73598
G1 X84.059 Y13.068 E37.76604
G1 X84.71 Y12.443 E37.79605
G1 X85.415 Y11.878 E37.8261
G1 X86.166 Y11.377 E37.85613
G1 X86.959 Y10.945 E37.88616
G1 X87.787 Y10.585 E37.91619
G1 X88.644 Y10.299 E37.94624
G1 X89.522 Y10.09 E37.97626
G1 X90.419 Y9.959 E38.00641
G1 X90.858 Y9.918 E38.02108
G1 X91.286 Y9.887 E38.03535
G1 X91.796 Y9.855 E38.05235
G1 X92.257 Y9.832 E38.0677
G1 X92.589 Y9.821 E38.07875
G1 X93.869 Y9.8 E38.12133
G1 X125.16 Y9.8 E39.16207
G1 X126.01 Y9.811 E39.19034
G1 X126.303 Y9.819 E39.20009
G1 X126.756 Y9.841 E39.21518
G1 X127.214 Y9.874 E39.23045
G1 X128.063 Y9.949 E39.2588
G1 X128.958 Y10.068 E39.28883
G1 X129.839 Y10.266 E39.31886
G1 X130.699 Y10.541 E39.34889
G1 X131.532 Y10.891 E39.37894
G1 X132.33 Y11.313 E39.40897
G1 X133.088 Y11.805 E39.43902
G1 X133.799 Y12.361 E39.46904
G1 X134.458 Y12.978 E39.49907
G1 X135.06 Y13.651 E39.5291
G1 X135.601 Y14.375 E39.55916
G1 X136.075 Y15.144 E39.58921
G1 X136.479 Y15.951 E39.61922
G1 X136.81 Y16.791 E39.64925
G1 X137.066 Y17.657 E39.67929
G1 X137.244 Y18.543 E39.70934
G1 X137.342 Y19.432 E39.73909
G1 X137.401 Y20.321 E39.76873
G1 X137.614 Y22.963 E39.85688
G1 X137.888 Y25.483 E39.94119
G1 X138.234 Y28.004 E40.02583
G1 X138.651 Y30.503 E40.11009
G1 X139.142 Y33.013 E40.19516
G1 X139.697 Y35.474 E40.27907
G1 X140.318 Y37.906 E40.36255
G1 X141.02 Y40.367 E40.44767
G1 X141.789 Y42.8 E40.53254
G1 X142.633 Y45.224 E40.61791
G1 X143.512 Y47.538 E40.70024
G1 X144.495 Y49.922 E40.78601
G1 X145.531 Y52.243 E40.87054
G1 X146.629 Y54.529 E40.95489
G1 X147.802 Y56.801 E41.03994
G1 X149.011 Y58.991 E41.12314
G1 X150.326 Y61.222 E41.20927
G1 X151.645 Y63.323 E41.29178
G1 X153.089 Y65.483 E41.3782
G1 X154.536 Y67.519 E41.46128
G1 X156.087 Y69.577 E41.54699
G1 X157.65 Y71.533 E41.63026
G1 X159.289 Y73.47 E41.71466
G1 X161.022 Y75.403 E41.801
G1 X162.367 Y76.832 E41.86627
G1 X162.961 Y77.512 E41.89631
G1 X163.493 Y78.242 E41.92635
G1 X163.958 Y79.016 E41.95638
G1 X164.353 Y79.828 E41.98641
G1 X164.674 Y80.672 E42.01645
G1 X164.919 Y81.542 E42.04651
G1 X165.087 Y82.429 E42.07654
G1 X165.185 Y83.562 E42.11436
G1 X165.195 Y83.887 E42.12517
G1 X165.2 Y84.201 E42.13562
G1 X165.199 Y197.088 E45.89026
G1 X165.188 Y197.834 E45.91507
G1 X165.135 Y198.736 E45.94512
G1 X165.074 Y199.212 E45.96108
G1 X165.034 Y199.476 E45.96997
G1 X164.984 Y199.776 E45.98008
G1 X164.931 Y200.067 E45.98992
G1 X164.73 Y200.947 E46.01994
G1 X164.452 Y201.806 E46.04997
G1 X163.988 Y202.861 E46.0883
G1 X163.715 Y203.398 E46.10834
G1 X163.349 Y204.058 E46.13344
G1 X163.326 Y204.096 E46.13492
G1 X162.825 Y204.847 E46.16495
G1 X161.977 Y205.858 E46.20883
G1 X161.66 Y206.19 E46.2241
G1 X161.431 Y206.423 E46.23497
G1 X161.262 Y206.589 E46.24285
G1 X160.59 Y207.192 E46.27288
G1 X159.641 Y207.885 E46.31196
G1 X159.329 Y208.081 E46.32422
G1 X158.952 Y208.307 E46.33883
G1 X158.591 Y208.515 E46.35269
G1 X157.79 Y208.931 E46.38271
G1 X156.769 Y209.338 E46.41927
G1 X156.382 Y209.469 E46.43286
G1 X156.086 Y209.565 E46.44321
G1 X155.794 Y209.654 E46.45336
G1 X154.919 Y209.879 E46.48341
G1 X154.049 Y210.023 E46.51274
G1 X153.431 Y210.098 E46.53345
G1 X153.081 Y210.134 E46.54515
G1 X152.873 Y210.152 E46.55209
G1 X152.319 Y210.185 E46.57055
G1 X152.005 Y210.195 E46.581
G1 X151.68 Y210.2 E46.59181
G1 X68.559 Y210.199 E49.35643
G1 X67.862 Y210.189 E49.37961
G1 X67.279 Y210.164 E49.39902
G1 X67.014 Y210.145 E49.40786
G1 X66.569 Y210.103 E49.42272
G1 X66.103 Y210.049 E49.43833
