;FLAVOR:Marlin
;TIME:18383
;Filament used: 13.6231m
;Layer height: 0.2
;MINX:56.108
;MINY:9
;MINZ:0.2
;MAXX:163.892
;MAXY:209.373
;MAXZ:10
;Generated with Creality Slicer 4.8.2-218
M140 S50
M105
M190 S50
M104 S200
M105
M109 S200
M82 ;absolute extrusion mode

G28 ;Home

G92 E0 ;Reset Extruder
G1 Z2.0 F3000 ;Move Z Axis up
G1 X10.1 Y20 Z0.28 F5000.0 ;Move to start position
G1 X10.1 Y200.0 Z0.28 F1500.0 E15 ;Draw the first line
G1 X10.4 Y200.0 Z0.28 F5000.0 ;Move to side a little
G1 X10.4 Y20 Z0.28 F1500.0 E30 ;Draw the second line
G92 E0 ;Reset Extruder
G1 Z2.0 F3000 ;Move Z Axis up

G92 E0
G92 E0
G1 F2700 E-5
;LAYER_COUNT:50
;LAYER:0
M107
G0 F6000 X81.708 Y17.776 Z0.2
;TYPE:SKIRT
G1 F2700 E0
G1 F1200 X81.948 Y16.87 E0.03117
G1 X82.264 Y15.987 E0.06237
G1 X82.655 Y15.134 E0.09358
G1 X83.116 Y14.318 E0.12475
G1 X83.646 Y13.544 E0.15595
G1 X84.239 Y12.817 E0.18715
G1 X84.892 Y12.144 E0.21834
G1 X85.6 Y11.529 E0.24953
G1 X86.358 Y10.977 E0.28072
G1 X87.161 Y10.491 E0.31194
G1 X88.001 Y10.076 E0.3431
G1 X88.874 Y9.733 E0.3743
G1 X89.774 Y9.466 E0.40552
G1 X90.974 Y9.235 E0.44617
G1 X91.527 Y9.16 E0.46473
G1 X92.086 Y9.098 E0.48343
G1 X92.396 Y9.072 E0.49378
G1 X93.107 Y9.036 E0.51746
G1 X94.903 Y9.002 E0.5772
G1 X95.111 Y9 E0.58412
G1 X126.109 Y9 E1.61512
G1 X126.317 Y9.002 E1.62204
G1 X127.903 Y9.032 E1.6748
G1 X128.255 Y9.044 E1.68651
G1 X128.647 Y9.064 E1.69957
G1 X128.989 Y9.087 E1.71097
G1 X129.147 Y9.1 E1.71624
G1 X129.676 Y9.156 E1.73394
G1 X130.141 Y9.217 E1.74953
G1 X131.065 Y9.379 E1.78073
G1 X131.971 Y9.619 E1.81191
G1 X132.854 Y9.935 E1.8431
G1 X133.707 Y10.325 E1.8743
G1 X134.524 Y10.786 E1.9055
G1 X135.298 Y11.315 E1.93668
G1 X136.025 Y11.908 E1.96788
G1 X136.698 Y12.561 E1.99907
G1 X137.313 Y13.269 E2.03026
G1 X137.866 Y14.027 E2.06147
G1 X138.352 Y14.829 E2.09266
G1 X138.768 Y15.67 E2.12387
G1 X139.111 Y16.543 E2.15506
G1 X139.378 Y17.442 E2.18626
G1 X139.568 Y18.36 E2.21744
G1 X139.678 Y19.291 E2.24862
G1 X139.708 Y19.892 E2.26863
G1 X139.721 Y20.512 E2.28926
G1 X139.815 Y23.135 E2.37655
G1 X139.974 Y25.613 E2.45914
G1 X140.208 Y28.136 E2.54342
G1 X140.51 Y30.63 E2.62697
G1 X140.884 Y33.122 E2.71079
G1 X141.324 Y35.578 E2.79377
G1 X141.847 Y38.091 E2.87915
G1 X142.413 Y40.467 E2.96039
G1 X143.082 Y42.965 E3.0464
G1 X143.796 Y45.353 E3.1293
G1 X144.585 Y47.746 E3.2131
G1 X145.44 Y50.109 E3.29668
G1 X146.36 Y52.445 E3.38019
G1 X147.361 Y54.786 E3.46487
G1 X148.397 Y57.038 E3.54732
G1 X149.528 Y59.319 E3.632
G1 X150.704 Y61.533 E3.71538
G1 X151.952 Y63.73 E3.79942
G1 X153.245 Y65.864 E3.88241
G1 X154.61 Y67.98 E3.96616
G1 X156.042 Y70.065 E4.05029
G1 X157.538 Y72.119 E4.1348
G1 X159.044 Y74.066 E4.21667
G1 X161.2 Y76.678 E4.32932
G1 X161.263 Y76.752 E4.33255
G1 X161.84 Y77.492 E4.36376
G1 X162.351 Y78.278 E4.39494
G1 X162.793 Y79.105 E4.42613
G1 X163.164 Y79.967 E4.45734
G1 X163.459 Y80.857 E4.48853
G1 X163.678 Y81.769 E4.51972
G1 X163.819 Y82.696 E4.55091
G1 X163.877 Y83.538 E4.57898
G1 X163.887 Y83.863 E4.5898
G1 X163.892 Y84.201 E4.60104
G1 X163.892 Y197.109 E8.35637
G1 X163.881 Y197.844 E8.38082
G1 X163.827 Y198.78 E8.41201
G1 X163.693 Y199.708 E8.44319
G1 X163.481 Y200.622 E8.4744
G1 X163.264 Y201.313 E8.49849
G1 X163.194 Y201.513 E8.50554
G1 X162.847 Y202.384 E8.53672
G1 X162.556 Y202.983 E8.55887
G1 X162.457 Y203.172 E8.56597
G1 X161.987 Y203.984 E8.59717
G1 X161.449 Y204.752 E8.62836
G1 X160.848 Y205.472 E8.65955
G1 X160.188 Y206.138 E8.69074
G1 X159.473 Y206.745 E8.72193
G1 X158.906 Y207.159 E8.74528
G1 X158.837 Y207.206 E8.74806
G1 X158.187 Y207.617 E8.77364
G1 X157.971 Y207.743 E8.78196
G1 X157.141 Y208.18 E8.81315
G1 X156.622 Y208.41 E8.83204
G1 X156.525 Y208.45 E8.83553
G1 X156.063 Y208.629 E8.852
G1 X155.819 Y208.717 E8.86063
G1 X154.924 Y208.997 E8.89182
G1 X154.008 Y209.2 E8.92303
G1 X153.079 Y209.324 E8.9542
G1 X152.142 Y209.369 E8.9854
G1 X151.342 Y209.373 E9.01201
G1 X150.817 Y209.368 E9.02947
G1 X68.922 Y209.368 E11.75331
G1 X68.533 Y209.372 E11.76625
G1 X68.31 Y209.372 E11.77367
G1 X67.808 Y209.367 E11.79036
G1 X66.872 Y209.318 E11.82154
G1 X65.943 Y209.189 E11.85273
G1 X65.028 Y208.982 E11.88394
G1 X64.468 Y208.813 E11.90339
G1 X64.359 Y208.777 E11.90721
G1 X63.826 Y208.586 E11.92604
G1 X63.584 Y208.492 E11.93468
G1 X62.725 Y208.115 E11.96588
G1 X61.855 Y207.639 E11.99886
G1 X61.59 Y207.478 E12.00917
G1 X60.81 Y206.957 E12.04037
G1 X60.078 Y206.372 E12.07154
G1 X59.397 Y205.726 E12.10276
G1 X58.774 Y205.025 E12.13395
G1 X58.213 Y204.274 E12.16513
G1 X57.581 Y203.225 E12.20586
G1 X57.42 Y202.921 E12.2173
G1 X57.017 Y202.074 E12.2485
G1 X56.687 Y201.196 E12.2797
G1 X56.351 Y199.913 E12.32381
G1 X56.327 Y199.792 E12.32791
G1 X56.184 Y198.865 E12.35911
G1 X56.118 Y197.802 E12.39453
G1 X56.108 Y196.993 E12.42144
G1 X56.108 Y84.423 E16.16554
G1 X56.118 Y83.719 E16.18895
G1 X56.171 Y82.782 E16.22017
G1 X56.304 Y81.854 E16.25135
G1 X56.516 Y80.94 E16.28255
G1 X56.804 Y80.048 E16.31373
G1 X57.168 Y79.183 E16.34494
G1 X57.604 Y78.353 E16.37613
G1 X58.109 Y77.563 E16.40731
G1 X58.842 Y76.627 E16.44685
G1 X59.289 Y76.117 E16.46941
G1 X60.999 Y74.115 E16.55698
G1 X62.55 Y72.191 E16.63918
G1 X64.089 Y70.167 E16.72375
G1 X65.553 Y68.122 E16.8074
G1 X66.956 Y66.044 E16.89079
G1 X68.307 Y63.914 E16.97468
G1 X69.592 Y61.755 E17.05825
G1 X70.824 Y59.545 E17.1424
G1 X71.977 Y57.335 E17.22531
G1 X73.082 Y55.058 E17.30949
G1 X74.124 Y52.747 E17.3938
G1 X75.09 Y50.434 E17.47717
G1 X75.998 Y48.08 E17.56109
G1 X76.837 Y45.694 E17.64521
G1 X77.6 Y43.317 E17.72825
G1 X78.295 Y40.919 E17.81129
G1 X78.935 Y38.456 E17.89593
G1 X79.499 Y36.007 E17.97951
G1 X80 Y33.508 E18.06428
G1 X80.409 Y31.101 E18.14549
G1 X80.772 Y28.546 E18.23132
G1 X81.051 Y26.079 E18.3139
G1 X81.263 Y23.572 E18.39758
G1 X81.407 Y21.021 E18.48256
G1 X81.423 Y20.512 E18.4995
G1 X81.463 Y19.634 E18.52873
G1 X81.546 Y18.7 E18.55992
G1 X81.708 Y17.776 E18.59112
G0 F6000 X82.106 Y17.829
G1 F1200 X82.345 Y16.94 E18.62174
G1 X82.66 Y16.075 E18.65235
G1 X83.05 Y15.241 E18.68298
G1 X83.51 Y14.443 E18.71361
G1 X84.037 Y13.689 E18.74421
G1 X84.628 Y12.983 E18.77483
G1 X85.278 Y12.331 E18.80545
G1 X85.983 Y11.738 E18.83609
G1 X86.736 Y11.208 E18.86672
G1 X87.532 Y10.746 E18.89733
G1 X88.365 Y10.355 E18.92794
G1 X89.229 Y10.037 E18.95856
G1 X90.118 Y9.795 E18.9892
G1 X91.027 Y9.631 E19.01992
G1 X91.58 Y9.556 E19.03849
G1 X92.119 Y9.497 E19.05652
G1 X92.429 Y9.471 E19.06687
G1 X93.114 Y9.436 E19.08968
G1 X94.91 Y9.402 E19.14943
G1 X95.111 Y9.4 E19.15611
G1 X126.109 Y9.4 E20.18711
G1 X126.309 Y9.402 E20.19376
G1 X127.895 Y9.432 E20.24652
G1 X128.235 Y9.444 E20.25784
G1 X128.627 Y9.464 E20.27089
G1 X128.956 Y9.486 E20.28186
G1 X129.114 Y9.499 E20.28713
G1 X129.624 Y9.553 E20.30419
G1 X130.089 Y9.614 E20.31979
G1 X130.995 Y9.773 E20.35038
G1 X131.885 Y10.011 E20.38102
G1 X132.751 Y10.324 E20.41165
G1 X133.586 Y10.712 E20.44227
G1 X134.384 Y11.17 E20.47288
G1 X135.14 Y11.697 E20.50353
G1 X135.847 Y12.286 E20.53413
G1 X136.5 Y12.935 E20.56475
G1 X137.094 Y13.638 E20.59537
G1 X137.625 Y14.39 E20.62598
G1 X138.089 Y15.185 E20.6566
G1 X138.482 Y16.018 E20.68723
G1 X138.802 Y16.881 E20.71785
G1 X139.045 Y17.769 E20.74847
G1 X139.21 Y18.675 E20.7791
G1 X139.308 Y19.901 E20.82001
G1 X139.321 Y20.531 E20.84096
G1 X139.415 Y23.139 E20.92776
G1 X139.575 Y25.64 E21.01112
G1 X139.811 Y28.184 E21.09609
G1 X140.112 Y30.666 E21.17925
G1 X140.495 Y33.221 E21.26518
G1 X140.931 Y35.659 E21.34755
G1 X141.453 Y38.16 E21.43253
G1 X142.031 Y40.592 E21.51567
G1 X142.687 Y43.036 E21.59984
G1 X143.419 Y45.488 E21.68495
G1 X144.205 Y47.87 E21.76837
G1 X145.063 Y50.243 E21.8523
G1 X145.996 Y52.612 E21.93698
G1 X146.987 Y54.931 E22.02086
G1 X148.053 Y57.246 E22.10563
G1 X149.159 Y59.478 E22.18848
G1 X150.36 Y61.739 E22.27363
G1 X151.596 Y63.914 E22.35684
G1 X152.91 Y66.082 E22.44116
G1 X154.288 Y68.218 E22.5257
G1 X155.721 Y70.305 E22.6099
G1 X157.201 Y72.336 E22.69349
G1 X158.742 Y74.33 E22.77731
G1 X160.823 Y76.851 E22.88603
G1 X160.959 Y77.011 E22.89302
G1 X161.524 Y77.738 E22.92364
G1 X162.024 Y78.511 E22.95426
G1 X162.455 Y79.324 E22.98486
G1 X162.814 Y80.172 E23.01549
G1 X163.098 Y81.048 E23.04612
G1 X163.305 Y81.945 E23.07674
G1 X163.433 Y82.857 E23.10737
G1 X163.477 Y83.55 E23.13047
G1 X163.487 Y83.875 E23.14128
G1 X163.492 Y84.201 E23.15212
G1 X163.492 Y197.103 E26.90726
G1 X163.481 Y197.838 E26.93171
G1 X163.427 Y198.757 E26.96233
G1 X163.294 Y199.668 E26.99295
G1 X163.082 Y200.564 E27.02357
G1 X162.887 Y201.181 E27.0451
G1 X162.817 Y201.381 E27.05214
G1 X162.475 Y202.236 E27.08277
G1 X162.202 Y202.797 E27.10352
G1 X162.103 Y202.986 E27.11062
G1 X161.641 Y203.783 E27.14126
G1 X161.111 Y204.536 E27.17188
G1 X160.518 Y205.24 E27.2025
G1 X159.866 Y205.89 E27.23312
G1 X159.161 Y206.482 E27.26374
G1 X158.68 Y206.829 E27.28347
G1 X158.611 Y206.876 E27.28624
G1 X157.985 Y207.271 E27.31086
G1 X157.769 Y207.397 E27.31918
G1 X156.954 Y207.826 E27.34981
G1 X156.469 Y208.04 E27.36744
G1 X156.372 Y208.08 E27.37093
G1 X155.927 Y208.252 E27.3868
G1 X155.683 Y208.34 E27.39543
G1 X154.804 Y208.615 E27.42606
G1 X153.905 Y208.812 E27.45667
G1 X152.992 Y208.93 E27.48729
G1 X152.14 Y208.969 E27.51566
G1 X151.34 Y208.973 E27.54227
G1 X150.822 Y208.968 E27.5595
G1 X68.918 Y208.968 E30.28364
G1 X68.529 Y208.972 E30.29657
G1 X68.314 Y208.972 E30.30372
G1 X67.812 Y208.967 E30.32042
G1 X66.893 Y208.918 E30.35103
G1 X65.981 Y208.79 E30.38166
G1 X65.084 Y208.582 E30.41229
G1 X64.594 Y208.433 E30.42932
G1 X64.485 Y208.397 E30.43314
G1 X63.971 Y208.213 E30.4513
G1 X63.729 Y208.119 E30.45993
G1 X62.886 Y207.748 E30.49057
G1 X62.063 Y207.297 E30.52178
G1 X61.798 Y207.136 E30.53209
G1 X61.033 Y206.624 E30.56271
G1 X60.315 Y206.048 E30.59333
G1 X59.649 Y205.412 E30.62396
G1 X59.042 Y204.72 E30.65457
G1 X58.497 Y203.978 E30.68519
G1 X57.935 Y203.038 E30.72162
G1 X57.774 Y202.734 E30.73306
G1 X57.378 Y201.902 E30.76371
G1 X57.057 Y201.04 E30.7943
G1 X56.744 Y199.835 E30.83571
G1 X56.72 Y199.714 E30.83981
G1 X56.58 Y198.804 E30.87043
G1 X56.518 Y197.797 E30.90399
G1 X56.508 Y196.993 E30.93073
G1 X56.508 Y84.428 E34.67466
G1 X56.518 Y83.724 E34.69808
G1 X56.571 Y82.805 E34.7287
G1 X56.704 Y81.894 E34.75932
G1 X56.915 Y80.998 E34.78993
G1 X57.203 Y80.124 E34.82054
G1 X57.566 Y79.278 E34.85116
G1 X58.001 Y78.466 E34.8818
G1 X58.505 Y77.696 E34.91241
G1 X59.143 Y76.891 E34.94657
G1 X59.573 Y76.4 E34.96828
G1 X61.298 Y74.38 E35.05663
G1 X62.877 Y72.421 E35.14031
G1 X64.422 Y70.391 E35.22516
G1 X65.861 Y68.381 E35.30738
G1 X67.298 Y66.251 E35.39284
G1 X68.639 Y64.137 E35.47611
G1 X69.941 Y61.948 E35.56082
G1 X71.17 Y59.746 E35.64469
G1 X72.347 Y57.488 E35.72938
G1 X73.449 Y55.219 E35.81328
G1 X74.481 Y52.93 E35.89679
G1 X75.461 Y50.584 E35.98136
G1 X76.384 Y48.191 E36.06666
G1 X77.197 Y45.877 E36.14824
G1 X77.988 Y43.413 E36.23431
G1 X78.683 Y41.017 E36.31729
G1 X79.326 Y38.541 E36.40237
G1 X79.887 Y36.104 E36.48555
G1 X80.392 Y33.588 E36.5709
G1 X80.806 Y31.152 E36.65308
G1 X81.167 Y28.61 E36.73848
G1 X81.453 Y26.087 E36.82293
G1 X81.663 Y23.595 E36.90611
G1 X81.806 Y21.053 E36.99079
G1 X81.823 Y20.531 E37.00816
G1 X81.863 Y19.653 E37.03739
G1 X81.945 Y18.736 E37.06801
G1 X82.106 Y17.829 E37.09865
G0 F6000 X82.504 Y17.883
G1 F1200 X82.742 Y17.011 E37.12871
G1 X83.056 Y16.165 E37.15873
G1 X83.444 Y15.349 E37.18878
G1 X83.903 Y14.571 E37.21882
G1 X84.429 Y13.837 E37.24886
G1 X85.017 Y13.152 E37.27889
G1 X85.664 Y12.522 E37.30892
G1 X86.364 Y11.951 E37.33897
G1 X87.112 Y11.445 E37.369
G1 X87.901 Y11.006 E37.39903
G1 X88.727 Y10.64 E37.42908
G1 X89.581 Y10.347 E37.45911
G1 X90.458 Y10.132 E37.48914
G1 X91.081 Y10.028 E37.51015
G1 X91.634 Y9.953 E37.52871
G1 X92.153 Y9.896 E37.54608
G1 X92.463 Y9.87 E37.55643
G1 X93.122 Y9.836 E37.57837
G1 X94.918 Y9.802 E37.63812
G1 X95.111 Y9.8 E37.64454
G1 X126.109 Y9.8 E38.67554
G1 X126.302 Y9.802 E38.68196
G1 X127.888 Y9.832 E38.73472
G1 X128.215 Y9.843 E38.7456
G1 X128.607 Y9.863 E38.75865
G1 X128.923 Y9.884 E38.76919
G1 X129.081 Y9.897 E38.77446
G1 X129.572 Y9.95 E38.79089
G1 X130.037 Y10.011 E38.80648
G1 X130.926 Y10.168 E38.83651
G1 X131.798 Y10.403 E38.86655
G1 X132.646 Y10.714 E38.89659
G1 X133.463 Y11.099 E38.92663
G1 X134.242 Y11.555 E38.95665
G1 X134.979 Y12.078 E38.98671
G1 X135.666 Y12.664 E39.01674
G1 X136.298 Y13.308 E39.04675
G1 X136.872 Y14.006 E39.07681
G1 X137.381 Y14.752 E39.10685
G1 X137.822 Y15.54 E39.13688
G1 X138.192 Y16.364 E39.16692
G1 X138.487 Y17.217 E39.19694
G1 X138.706 Y18.094 E39.22701
G1 X138.846 Y18.986 E39.25704
G1 X138.908 Y19.909 E39.28781
G1 X138.921 Y20.549 E39.3091
G1 X139.015 Y23.143 E39.39543
G1 X139.179 Y25.704 E39.48079
G1 X139.41 Y28.198 E39.56409
G1 X139.718 Y30.741 E39.64929
G1 X140.093 Y33.239 E39.73331
G1 X140.547 Y35.78 E39.81916
G1 X141.056 Y38.221 E39.90209
G1 X141.642 Y40.682 E39.98623
G1 X142.306 Y43.158 E40.0715
G1 X143.033 Y45.591 E40.15595
G1 X143.833 Y48.015 E40.24085
G1 X144.691 Y50.389 E40.32481
G1 X145.632 Y52.779 E40.41024
G1 X146.608 Y55.063 E40.49285
G1 X147.689 Y57.412 E40.57886
G1 X148.813 Y59.679 E40.66302
G1 X150.003 Y61.919 E40.74738
G1 X151.256 Y64.124 E40.83173
G1 X152.575 Y66.301 E40.91639
G1 X153.955 Y68.439 E41.00103
G1 X155.395 Y70.538 E41.08569
G1 X156.877 Y72.571 E41.16937
G1 X158.418 Y74.564 E41.25316
G1 X160.572 Y77.173 E41.36569
G1 X160.654 Y77.27 E41.36991
G1 X161.208 Y77.983 E41.39995
G1 X161.696 Y78.743 E41.42999
G1 X162.116 Y79.543 E41.46004
G1 X162.463 Y80.376 E41.49005
G1 X162.735 Y81.238 E41.52012
G1 X162.93 Y82.119 E41.55013
G1 X163.046 Y83.015 E41.58018
G1 X163.077 Y83.562 E41.5984
G1 X163.087 Y83.887 E41.60921
G1 X163.092 Y84.201 E41.61966
G1 X163.092 Y197.097 E45.37459
G1 X163.081 Y197.832 E45.39904
G1 X163.027 Y198.733 E45.42906
G1 X162.894 Y199.626 E45.45909
G1 X162.683 Y200.504 E45.48913
G1 X162.509 Y201.049 E45.50816
G1 X162.439 Y201.249 E45.5152
G1 X162.104 Y202.087 E45.54522
G1 X161.847 Y202.612 E45.56466
G1 X161.748 Y202.801 E45.57176
G1 X161.294 Y203.582 E45.6018
G1 X160.773 Y204.319 E45.63182
G1 X160.189 Y205.007 E45.66184
G1 X159.545 Y205.641 E45.6919
G1 X158.849 Y206.216 E45.72192
G1 X158.455 Y206.498 E45.73804
G1 X158.386 Y206.545 E45.74082
G1 X157.783 Y206.926 E45.76454
G1 X157.567 Y207.052 E45.77286
G1 X156.768 Y207.472 E45.80288
G1 X156.317 Y207.671 E45.81927
G1 X156.22 Y207.711 E45.82276
G1 X155.792 Y207.876 E45.83802
G1 X155.548 Y207.964 E45.84665
G1 X154.685 Y208.233 E45.87671
G1 X153.803 Y208.424 E45.90673
G1 X152.906 Y208.536 E45.9368
G1 X152.138 Y208.569 E45.96236
G1 X151.338 Y208.573 E45.98897
G1 X150.826 Y208.568 E46.006
G1 X68.914 Y208.568 E48.73041
G1 X68.318 Y208.572 E48.75023
G1 X67.816 Y208.567 E48.76693
G1 X66.915 Y208.519 E48.79694
G1 X66.021 Y208.39 E48.82698
G1 X64.719 Y208.053 E48.87171
G1 X64.61 Y208.017 E48.87553
G1 X64.116 Y207.84 E48.89298
G1 X63.874 Y207.746 E48.90162
G1 X63.047 Y207.382 E48.93167
G1 X62.271 Y206.955 E48.96113
G1 X62.006 Y206.794 E48.97144
G1 X61.256 Y206.292 E49.00146
G1 X60.553 Y205.725 E49.0315
G1 X59.903 Y205.098 E49.06154
G1 X59.311 Y204.416 E49.09157
G1 X58.781 Y203.684 E49.12163
G1 X58.288 Y202.851 E49.15383
G1 X58.127 Y202.547 E49.16527
G1 X57.74 Y201.731 E49.1953
G1 X57.427 Y200.884 E49.22534
G1 X57.136 Y199.757 E49.26405
G1 X57.112 Y199.636 E49.26815
G1 X56.976 Y198.744 E49.29817
G1 X56.918 Y197.791 E49.32992
G1 X56.908 Y196.993 E49.35646
G1 X56.908 Y84.434 E53.10019
G1 X56.918 Y83.73 E53.12361
G1 X56.971 Y82.829 E53.15363
G1 X57.103 Y81.935 E53.18369
G1 X57.314 Y81.057 E53.21372
G1 X57.602 Y80.201 E53.24376
G1 X57.964 Y79.374 E53.27378
G1 X58.398 Y78.582 E53.30382
